X:119
T: Itt a szüret, egy-két hónap...
M: 4/4
L: 1/4
K: Bb
dgfg | dcfd | 
cfed | e/d/cB2 | 
cedc | _BcGF | 
ccBG | F/F/GG2 | 

